icons/download.svg

<?xml version="1.0" encoding="UTF-8"?>
<svg width="50" height="50" version="1.1" viewBox="0 0 50 50" xmlns="http://www.w3.org/2000/svg">
<path d="m22.5 5c-2.5 0-2.5 2.5-2.5 2.5v10h-5c-3.75 0-3.75 2.5-3.75 3.75s1.25 2.5 1.25 2.5l8.75 8.75c3.75 3.75 7.5 0 7.5 0l8.75-8.75s1.25-1.25 1.25-2.5 0-3.75-3.75-3.75h-5v-10c0-2.5-2.5-2.5-2.5-2.5zm-15 31.25s-2.5 0-2.5 2.5v3.75s0 2.5 2.5 2.5h35s2.5 0 2.5-2.5v-3.75s0-2.5-2.5-2.5zm33.125 2.5a1.875 1.875 0 0 1 1.875 1.875 1.875 1.875 0 0 1-1.875 1.875 1.875 1.875 0 0 1-1.875-1.875 1.875 1.875 0 0 1 1.875-1.875z"/>
</svg>

<?xml version="1.0" encoding="UTF-8" standalone="no"?>
<svg
   xmlns:dc="http://purl.org/dc/elements/1.1/"
   xmlns:cc="http://creativecommons.org/ns#"
   xmlns:rdf="http://www.w3.org/1999/02/22-rdf-syntax-ns#"
   xmlns:svg="http://www.w3.org/2000/svg"
   xmlns="http://www.w3.org/2000/svg"
   id="svg4"
   viewBox="0 0 50 50"
   version="1.1"
   width="50"
   height="50">
  <metadata
     id="metadata10">
    <rdf:RDF>
      <cc:Work
         rdf:about="">
        <dc:format>image/svg+xml</dc:format>
        <dc:type
           rdf:resource="http://purl.org/dc/dcmitype/StillImage" />
        <dc:title></dc:title>
      </cc:Work>
    </rdf:RDF>
  </metadata>
  <defs
     id="defs8" />
  <path
     id="path2181"
     d="M 22.5,5 C 20,5 20,7.5 20,7.5 v 10 h -5 c -3.75,0 -3.75,2.5 -3.75,3.75 0,1.25 1.25,2.5 1.25,2.5 l 8.75,8.75 c 3.75,3.75 7.5,0 7.5,0 l 8.75,-8.75 c 0,0 1.25,-1.25 1.25,-2.5 0,-1.25 0,-3.75 -3.75,-3.75 H 30 V 7.5 C 30,5 27.5,5 27.5,5 Z m -15,31.25 c 0,0 -2.5,0 -2.5,2.5 v 3.75 c 0,0 0,2.5 2.5,2.5 h 35 c 0,0 2.5,0 2.5,-2.5 v -3.75 c 0,0 0,-2.5 -2.5,-2.5 z m 33.125,2.5 A 1.875,1.875 0 0 1 42.5,40.625 1.875,1.875 0 0 1 40.625,42.5 1.875,1.875 0 0 1 38.75,40.625 1.875,1.875 0 0 1 40.625,38.75 Z" />
</svg>
